!!!COM: Mozart, Wolfgang Amadeus
!!!CDT: 1756-1791
!!!OTL: National Anthem, Austria
!!!ENC: Davis, Matthew J.
!!Vocal Line Only
**kern
*clefG2
*k[b-e-a-]
*E-:
*M3/4
=1-
2b-
4a-
=2
2g
(8a-
8b-
=3
2cc
4b-
=4
4b-
4a-
4r
=5
2a-
4g
=6
2f
(8g
8a-)
=7
2b-
4a-
=8
(8a-
8g)
4g
4r
=9
2an
4b-
=10
2cc
4dd
=11
(4ee-
4cc)
4an
=12
2b-
4r
=13
2f
4g
=14
(4b-
4a-)
4f
=15
2g
(8cc
8a-)
=16
4g
4f
4r
=17
2f
4g
=18
(4b-
4a-)
4f
=19
2g
(8cc
8a)
=20
4g
4f
4r
=21
2a=
4g
=22
2cc
4b-
=23
(8b-
8a-
4g)
4f
=24
2g
4r
=25
2cc
4b-
=26
2dd
(8ee-
8b-)
=27
(8b-
8a-
4g)
4f
=28
2e-
4r
==|!
*-
